users.svg

<svg width="20" height="10" viewBox="0 0 20 10" fill="none" xmlns="http://www.w3.org/2000/svg">
<path d="M0 10V8.6875C0 8.07639 0.309167 7.58667 0.9275 7.21833C1.54528 6.85055 2.34722 6.66667 3.33333 6.66667C3.51389 6.66667 3.6875 6.67 3.85417 6.67667C4.02083 6.68389 4.18056 6.70139 4.33333 6.72917C4.13889 7.00694 3.99306 7.30555 3.89583 7.625C3.79861 7.94444 3.75 8.28472 3.75 8.64583V10H0ZM5 10V8.64583C5 7.74306 5.46194 7.01389 6.38583 6.45833C7.30917 5.90278 8.51389 5.625 10 5.625C11.5 5.625 12.7083 5.90278 13.625 6.45833C14.5417 7.01389 15 7.74306 15 8.64583V10H5ZM16.25 10V8.64583C16.25 8.28472 16.2047 7.94444 16.1142 7.625C16.0242 7.30555 15.8889 7.00694 15.7083 6.72917C15.8611 6.70139 16.0175 6.68389 16.1775 6.67667C16.3369 6.67 16.5 6.66667 16.6667 6.66667C17.6667 6.66667 18.4722 6.85055 19.0833 7.21833C19.6944 7.58667 20 8.07639 20 8.6875V10H16.25ZM3.33333 5.83333C2.875 5.83333 2.48278 5.67 2.15667 5.34333C1.83 5.01722 1.66667 4.625 1.66667 4.16667C1.66667 3.69444 1.83 3.29861 2.15667 2.97917C2.48278 2.65972 2.875 2.5 3.33333 2.5C3.80556 2.5 4.20139 2.65972 4.52083 2.97917C4.84028 3.29861 5 3.69444 5 4.16667C5 4.625 4.84028 5.01722 4.52083 5.34333C4.20139 5.67 3.80556 5.83333 3.33333 5.83333ZM16.6667 5.83333C16.2083 5.83333 15.8158 5.67 15.4892 5.34333C15.1631 5.01722 15 4.625 15 4.16667C15 3.69444 15.1631 3.29861 15.4892 2.97917C15.8158 2.65972 16.2083 2.5 16.6667 2.5C17.1389 2.5 17.5347 2.65972 17.8542 2.97917C18.1736 3.29861 18.3333 3.69444 18.3333 4.16667C18.3333 4.625 18.1736 5.01722 17.8542 5.34333C17.5347 5.67 17.1389 5.83333 16.6667 5.83333ZM10 5C9.30556 5 8.71528 4.75694 8.22917 4.27083C7.74306 3.78472 7.5 3.19444 7.5 2.5C7.5 1.79167 7.74306 1.19778 8.22917 0.718333C8.71528 0.239444 9.30556 0 10 0C10.7083 0 11.3019 0.239444 11.7808 0.718333C12.2603 1.19778 12.5 1.79167 12.5 2.5C12.5 3.19444 12.2603 3.78472 11.7808 4.27083C11.3019 4.75694 10.7083 5 10 5Z" fill="#69E0EE"/>
</svg>

<svg width="20" height="10" fill="none" xmlns="http://www.w3.org/2000/svg">
    <path d="M0 10V8.687c0-.61.31-1.1.927-1.469.618-.367 1.42-.551 2.406-.551.18 0 .354.003.521.01.167.007.327.024.48.052-.195.278-.34.577-.438.896-.097.32-.146.66-.146 1.02V10H0Zm5 0V8.646c0-.903.462-1.632 1.386-2.188.923-.555 2.128-.833 3.614-.833 1.5 0 2.708.278 3.625.833C14.542 7.014 15 7.743 15 8.646V10H5Zm11.25 0V8.646a3.73 3.73 0 0 0-.136-1.021 3.252 3.252 0 0 0-.406-.896c.153-.028.31-.045.47-.052.159-.007.322-.01.489-.01 1 0 1.805.184 2.416.551.611.369.917.858.917 1.47V10h-3.75ZM3.333 5.833c-.458 0-.85-.163-1.176-.49a1.603 1.603 0 0 1-.49-1.176c0-.473.163-.868.49-1.188.326-.32.718-.479 1.176-.479.473 0 .868.16 1.188.48.32.319.479.714.479 1.187 0 .458-.16.85-.48 1.176-.319.327-.714.49-1.187.49Zm13.334 0c-.459 0-.851-.163-1.178-.49A1.604 1.604 0 0 1 15 4.167c0-.473.163-.868.49-1.188.326-.32.718-.479 1.177-.479.472 0 .868.16 1.187.48.32.319.48.714.48 1.187 0 .458-.16.85-.48 1.176-.32.327-.715.49-1.187.49ZM10 5a2.41 2.41 0 0 1-1.77-.73A2.41 2.41 0 0 1 7.5 2.5c0-.708.243-1.302.73-1.782A2.43 2.43 0 0 1 10 0c.708 0 1.302.24 1.78.718.48.48.72 1.074.72 1.782 0 .694-.24 1.285-.72 1.77-.478.487-1.072.73-1.78.73Z"
          fill="#69E0EE"/>
</svg>
